X:1
T:More Like Jesus Would I Be
T:More Like Jesus Would I Be
T:William Howard Doane
T:Frances Jane (Fanny) Crosby, 1868
T:Public Domain Courtesy of the Cyber Hymnal™
C:William Howard Doane
Z:Public Domain
Z:Courtesy of the Cyber Hymnal™
%%score ( 1 2 ) ( 3 4 )
L:1/8
Q:1/4=170
M:6/4
K:F
V:1 treble 
V:2 treble 
V:3 bass 
V:4 bass 
V:1
 [FA]4 [FA]2 [FA]4 [EG]2 | [EG]4 [DF]2 [DF]6 | [EG]4 [EG]2 [EG]4 F2 | [EB]4 [FA]2 [EG]6 | %4
w: 1.~More like Je- sus|would I be,|let my Sav- ior|dwell with me;|
w: 2.~If He hears the|ra- ven’s cry,|if His ev- er|watch- ful eye|
w: 3.~More like Je- sus|when I pray,|more like Je- sus|day by day,|
 [FA]4 [FA]2 [FA]4 [EG]2 | [EG]4 [DF]2 [DF]6 | [DG]4 [Dd]2 (c2 B2) [DG]2 | %7
w: Fill my soul with|peace and love—|make me gen- * tle|
w: Marks the spar- rows|when they fall,|sure- ly He * will|
w: May I rest me|by His side,|where the tran- * quil|
 [CF]4 !fermata![CE]2 [CF]6 ||"^Refrain" [Ac]4 [Ac]2 ([Ac]2 [GB]2) [FA]2 | [Fd]4 [Fd]2 [Fd]6 | %10
w: as a dove;|More like Je- * sus,|while I go,|
w: hear my call:|He will teach * me|how to live,|
w: wa- ters glide.|Born of Him * through|grace re- newed,|
 [EG]4 [EG]2 ([EG]2 [FA]2) [GB]2 | [Fd]4 [Fc]2 [FA]6 | [FA]4 [FA]2 [FA]4 [EG]2 | %13
w: pil- grim in * this|world be- low;|Poor in spir- it|
w: all my sin- * ful|thoughts for- give;|Pure in heart I|
w: by His love * my|will sub- dued,|Rich in faith I|
 [EG]4 [DF]2 [DF]6 | [DG]4 [Dd]2 (c2 B2) [DG]2 | [CF]4 !fermata![CE]2 [CF]6 |] %16
w: would I be;|let my Sav- * ior|dwell in me.|
w: still would be—|let my Sav- * ior|dwell in me.|
w: still would be—|let my Sav- * ior|dwell in me.|
V:2
 x12 | x12 | x10 F2 | x12 | x12 | x12 | x6 D4 x2 | x12 || x12 | x12 | x12 | x12 | x12 | x12 | %14
 x6 D4 x2 | x12 |] %16
V:3
 [F,C]4 [F,C]2 [F,C]4 [C,B,]2 | [C,B,]4 [D,A,]2 [D,A,]6 | [C,C]4 [C,C]2 [C,C]4 [C,A,]2 | %3
 [C,G,]4 [C,F,]2 [C,C]6 | [F,C]4 [F,C]2 [F,C]4 [C,B,]2 | [C,B,]4 [D,A,]2 [D,A,]6 | %6
 [B,,B,]4 [B,,B,]2 [B,,G,]4 [B,,B,]2 | [C,A,]4 (3(G,A,B,) [F,A,]6 || [F,C]4 [F,C]2 [F,C]4 [F,C]2 | %9
 [B,,B,]4 [B,,B,]2 [B,,B,]6 | [C,B,]4 [C,B,]2 (B,2 A,2) [C,G,]2 | [F,B,]4 [F,A,]2 [F,C]6 | %12
 [F,C]4 [F,C]2 [F,C]4 [C,B,]2 | [C,B,]4 [D,A,]2 [D,A,]6 | [B,,B,]4 [B,,B,]2 [B,,G,]4 [B,,B,]2 | %15
 [C,A,]4 (3(G,A,B, [F,A,]6) |] %16
V:4
 x12 | x12 | x12 | x12 | x12 | x12 | x12 | x4 C,2 x6 || x12 | x12 | x6 C,4 x2 | x12 | x12 | x12 | %14
 x12 | x4 C,2 x6 |] %16

